!!!COM:	Ockeghem, Johannes
!!!CDT:	~1425-1497/02/06
!!!OPR:	Missa Caput
!!!ONM:	2
!!!OTL:	Gloria
!!!AGN:	Mass; Gloria
!!!SCT:	Ock1003b
!!!voices:	4
!!!voices-OPR:	4
**kern	**kern	**kern	**kern
*staff4	*staff3	*staff2	*staff1
*Ivox	*Ivox	*Ivox	*Ivox
*I"Tenor1	*I"Tenor2	*I"Contratenor	*I"Discantus
*I'T1	*I'T2	*I'Ct	*I'D
*clefF4	*clefGv2	*clefGv2	*clefG2
*k[]	*k[]	*k[]	*k[]
*M3/1	*M3/1	*M3/1	*M3/1
*met(O)	*met(O)	*met(O)	*met(O)
=1-	=1-	=1-	=1-
!!section: Et in terra pax
!!!OMD: Et in terra pax
0.r	0.r	0.A	0.a
=2	=2	=2	=2
0.r	0.r	1c	1g
.	.	1.d	1.f
.	.	4c\	4e/
.	.	4d\	4d/
=3	=3	=3	=3
0.r	0.r	1.e	1c
.	.	.	2g/
.	.	2c\	2a/
.	.	1d	2b\
.	.	.	4a/
.	.	.	4b\
=4	=4	=4	=4
0.r	0.r	1c	1cc
.	.	1d	2b\
.	.	.	1a
.	.	1e	.
.	.	.	2g/
=5	=5	=5	=5
0.r	0.r	2f\	1a
.	.	1d	.
.	.	.	2.f/
.	.	2B\	.
.	.	.	4g/
.	.	2c\	2a/
.	.	2d\	[2d/
=6	=6	=6	=6
0.r	0.r	1e	2d/]
.	.	.	2c/
.	.	2d\	2f/
.	.	2c\	2e/
.	.	1B	2d/
.	.	.	2g/
=7	=7	=7	=7
!!linebreak:original
0.r	0.r	1A	4f/
.	.	.	4g/
.	.	.	2a/
.	.	2d\	2d/
.	.	1d	2f/
.	.	.	1e
.	.	2c#i\	.
=8	=8	=8	=8
0.r	0.r	0.d;	0.d;
=9	=9	=9	=9
0.r	0.r	0.f	0.a
=10	=10	=10	=10
0.r	0.r	1e	1g
.	.	1.d	1.f
.	.	2c\	2e/
=11	=11	=11	=11
0.r	0.r	[0.c	1.e
.	.	.	1a
.	.	.	2g/
=12	=12	=12	=12
0.r	0.r	0c]	2.e/
.	.	.	4f/
.	.	.	2g/
.	.	.	1c
.	.	1d	.
.	.	.	2B/
=13	=13	=13	=13
!!linebreak:original
0.r	0.r	1e	2c/
.	.	.	2cc\
.	.	2d\	2b\
.	.	2c\	1a
.	.	1B	.
.	.	.	2dd\
=14	=14	=14	=14
0.r	0.r	2r	2cc\
.	.	2e\	1b
.	.	2d\	.
.	.	2f\	2a/
.	.	[1e	2g/
.	.	.	[2cc\
=15	=15	=15	=15
0.r	0.r	2e\]	2cc\]
.	.	1d	1b
.	.	2c\	1a
.	.	1B	.
.	.	.	2g#i/
=16	=16	=16	=16
0.r	0.r	1.A	0.a
.	.	2B\	.
.	.	1c	.
=17	=17	=17	=17
[0.BB	1.B	0.d	0.r
.	2A/	.	.
.	1G	.	.
=18	=18	=18	=18
0.BB]	1F#	1.B	0.d
.	0B	.	.
.	.	2G/	.
.	.	1F#	.
=19	=19	=19	=19
[0.D	0.A	1r	1.f
.	.	0d	.
.	.	.	2d/
.	.	.	2.f/
.	.	.	4g/
=20	=20	=20	=20
!!pagebreak:original
0.D]	1D	1d	1.a
.	0F	1A	.
.	.	.	1f
.	.	1d	.
.	.	.	4e/
.	.	.	4f/
=21	=21	=21	=21
[0.C	1.E	1.e	1.g
.	2F/	2c\	2e/
.	[1G	1c	2e/
.	.	.	2c/
=22	=22	=22	=22
0.C]	2G/]	1r	1c
.	1A	.	.
.	.	0e	1r
.	2F/	.	.
.	1E	.	2g/
.	.	.	2a/
=23	=23	=23	=23
0.D	1r	0f	1b-i
.	1r	.	2a/
.	.	.	1a
.	1A	1d	.
.	.	.	2f/
=24	=24	=24	=24
1r	1A	1c	1e
1r	1.B	1r	0d
1BB	.	1d	.
.	2G/	.	.
=25	=25	=25	=25
0.E	1G	1B	1g
.	2A/	1.e	1r
.	2G/	.	.
.	1c	.	[1g
.	.	2d\	.
=26	=26	=26	=26
0G	1.B	0d	2g/]
.	.	.	1b
.	1.d	.	2a/
1D	.	1f	1a
=27	=27	=27	=27
!!linebreak:original
1E	2G/	1e	1.g
.	2A/	.	.
1BB	1B	0d	.
.	.	.	2f/
1D	1A	.	1f
=28	=28	=28	=28
0.D	0A	2.f\	2d/
.	.	.	2.f/
.	.	4g\	.
.	.	1a	.
.	.	.	4g/
.	.	.	2a/
.	1r	2d\	2r
.	.	2f\	2d/
=29	=29	=29	=29
1C	0.r	2e\	2e/
.	.	1a	4d/
.	.	.	4e/
0AA	.	.	2f/
.	.	2f\	1d
.	.	1e	.
.	.	.	2c#i/
=30	=30	=30	=30
1r	0.r	1.d	0.d
1r	.	.	.
.	.	2.B\	.
1BB	.	.	.
.	.	4c\	.
.	.	2d\	.
=31	=31	=31	=31
[0.D	1.D	1A	0.r
.	.	1r	.
.	1.F	.	.
.	.	1r	.
=32	=32	=32	=32
0D]	2D/	0.r	0.r
.	1A	.	.
.	2F/	.	.
1C	1E	.	.
=33	=33	=33	=33
[0.D	0.D	0.r	[0.a
=34	=34	=34	=34
!!linebreak:original
0D]	1r	0A	0a]
.	0d	.	.
1BB	.	1B	1g
=35	=35	=35	=35
1r	1d	1d	1f
1r	0c	1A	0e
1E	.	[1G	.
=36	=36	=36	=36
0G	0B-	1G]	0d
.	.	1d	.
[1D	[1A	[1d	1r
=37	=37	=37	=37
1D]	1A]	1d]	1f
1E	0G	2.B\	2.g/
.	.	4c\	4a/
1BB	.	[1d	1b
=38	=38	=38	=38
0D	2.F/	1d]	2a/
.	.	.	1a
.	4G/	.	.
.	2A/	2d\	.
.	1A	2c\	2f/
1D	.	1A	2f/
.	2F/	.	2e/
=39	=39	=39	=39
1C	0E	1r	1g
0AA	.	0c	2a/
.	.	.	1cc
.	[1A	.	.
.	.	.	2b\
=40	=40	=40	=40
1r	1A]	1c	2a/
.	.	.	2f/
1r	0G	0B	2e/
.	.	.	2.f/
1BB	.	.	.
.	.	.	4e/
.	.	.	4e/
.	.	.	4d/
=41	=41	=41	=41
!!linebreak:original
[0.D	1.F	1A	0f
.	.	0d	.
.	2G/	.	.
.	1A	.	1r
=42	=42	=42	=42
1D]	1B	1d	1f
0C	2.c\	1G	2.e/
.	4d\	.	4f/
.	1e	1c	2g/
.	.	.	2a/
=43	=43	=43	=43
[0.D	1d	1r	1b
.	2c\	0f	1a
.	1B	.	.
.	.	.	1r
.	2A/	.	.
=44	=44	=44	=44
1D]	1.A	1f	1a
0BB	.	0d	1b
.	1G	.	.
.	.	.	1dd
.	4F/	.	.
.	4G/	.	.
=45	=45	=45	=45
[0.AA	[0.A	1.e	1cc
.	.	.	2a/
.	.	2c\	1a
.	.	1c	.
.	.	.	2f/
=46	=46	=46	=46
0.AA]	0.A]	2r	0e
.	.	1c	.
.	.	2d\	.
.	.	2.e\	1a
.	.	4c\	.
=47	=47	=47	=47
0.r	0.r	1e	2g/
.	.	.	4f/
.	.	.	4g/
.	.	2f\	2a/
.	.	1d	2f/
.	.	.	1e
.	.	2c\	.
=48	=48	=48	=48
!!pagebreak:original
1r	0.r	1f	0.d
1r	.	2g\	.
.	.	1a	.
1D	.	.	.
.	.	[2d\	.
=49	=49	=49	=49
0.D	1r	2d\]	0.f
.	.	2B\	.
.	1r	0A	.
.	1d	.	.
=50	=50	=50	=50
1E	2c\	1G	1g
.	4B\	.	.
.	4c\	.	.
0F	2d\	1D	1a
.	2c\	.	.
.	1A	1r	1cc
=51	=51	=51	=51
0G	0G	0.d	0b
1D	1F	.	1a
=52	=52	=52	=52
1E	1G	1B	1g
0F	0D	0A	2f/
.	.	.	1a
.	.	.	2f/
=53	=53	=53	=53
0G	0.r	0B	1e
.	.	.	0d
1D	.	1A	.
=54	=54	=54	=54
0G	1d	1G	0.r
.	2B\	0d	.
.	2G/	.	.
1D	1A	.	.
=55	=55	=55	=55
!!linebreak:original
1E	1.G	1B	0.r
0C	.	2c\	.
.	2.A/	2d\	.
.	.	1e	.
.	4G/	.	.
.	2E/	.	.
=56	=56	=56	=56
0D	2F/	1.A	0.r
.	2D/	.	.
.	2.F/	.	.
.	.	1d	.
.	4G/	.	.
1E	2.E/	.	.
.	.	2c\	.
.	4C/	.	.
=57	=57	=57	=57
1C	2E/	2A/	0.r
.	1G	4G/	.
.	.	4A/	.
0BB	.	2B\	.
.	2F/	1G	.
.	1D	.	.
.	.	4F/	.
.	.	4G/	.
=58	=58	=58	=58
[0.AA	0E	1.A	0.r
.	.	1c	.
.	2A/	.	.
.	2B\	2d\	.
=59	=59	=59	=59
0.AA]	1.c	1e	1r
.	.	1f	1r
.	2A/	.	.
.	2c\	1e	2a/
.	2d\	.	2b\
=60	=60	=60	=60
0.r	1e	1A	1.cc
.	1A	1r	.
.	.	.	1a
.	1d	1r	.
.	.	.	2f/
=61	=61	=61	=61
0.r	2c\	0.r	2e/
.	2d\	.	2f/
.	2e\	.	2g/
.	1d	.	2d/
.	.	.	1e
.	2c#i\	.	.
=62	=62	=62	=62
!!linebreak:original
1r	0d	0.a	0d
1r	.	.	.
1D	1A	.	1r
=63	=63	=63	=63
0.D	0d	0.f	0.r
.	1B	.	.
=64	=64	=64	=64
1E	1G	1e	0.r
0F	2A/	2d\	.
.	2G/	2c\	.
.	1c	1A	.
=65	=65	=65	=65
0G	1r	2G/	0b
.	.	1g	.
.	0d	.	.
.	.	2e\	.
1D	.	1f	1a
=66	=66	=66	=66
1E	1B	1g	1g
0F	0A	1.a	1.cc
.	.	2d\	2a/
=67	=67	=67	=67
0G	0G	0d	1b
.	.	.	1.dd
[1D	1d	1r	.
.	.	.	2cc\
=68	=68	=68	=68
1D]	[0.d	1r	1a
0G	.	0g	1.b
.	.	.	2g/
=69	=69	=69	=69
!!linebreak:original
1D	1d]	1f	1a
1E	1B	1e	1g
1C	1c	1g	1e
=70	=70	=70	=70
0D	1A	2f\	1r
.	.	1d	.
.	1F	.	1a
.	.	2B\	.
1E	1E	2c\	[1g
.	.	4B\	.
.	.	4c\	.
=71	=71	=71	=71
1BB	2D/	1d	1g]
.	1G	.	.
0AA	.	1c	0cc
.	2E/	.	.
.	1F	1A	.
=72	=72	=72	=72
[0.GG	1G	2r	1b
.	.	1d	.
.	2.B\	.	2g/
.	.	2B\	2.b\
.	4c\	.	.
.	1d	[1B	.
.	.	.	4cc\
.	.	.	[2dd\
=73	=73	=73	=73
0.GG]	1G	2B\]	2dd\]
.	.	2G/	2.g/
.	0d	0G	.
.	.	.	4a/
.	.	.	2cc\
.	.	.	2dd\
.	.	.	2b\
=74	=74	=74	=74
1r	[0.c	1.g	0cc
1r	.	.	.
.	.	1a	.
1AA	.	.	1a
.	.	2g\	.
=75	=75	=75	=75
0.C	0.c]	[0.e	1g
.	.	.	2a/
.	.	.	1cc
.	.	.	4b\
.	.	.	4a/
=76	=76	=76	=76
!!pagebreak:original
1C	1c	1e]	1g
0D	2A/	0d	1.f
.	1B	.	.
.	2A/	.	2e/
=77	=77	=77	=77
0.C	[0.c	1r	1e
.	.	0g	1c
.	.	.	1cc
=78	=78	=78	=78
0.r	1c]	1.e	2b\
.	.	.	1a
.	0B	.	.
.	.	1d	2g/
.	.	.	2g/
.	.	2c\	2e/
=79	=79	=79	=79
0.D	1A	0d	1f
.	1r	.	0a
.	1A	1f	.
=80	=80	=80	=80
0.C	2.c\	1e	1a
.	4d\	.	.
.	0e	1.c	0g
.	.	2A/	.
=81	=81	=81	=81
0.D	1.d	0A	1.f
.	2c\	.	2d/
.	1A	1d	1d
=82	=82	=82	=82
0.E	2G/	1c	0.r
.	1G	.	.
.	.	[0B	.
.	2F/	.	.
.	1E	.	.
=83	=83	=83	=83
!!linebreak:original
0BB	1D	0.B]	[0.dd
.	0G	.	.
[1GG	.	.	.
=84	=84	=84	=84
1GG]	1B	1G	1dd]
0AA	1A	2c\	1.cc
.	.	2d\	.
.	1c	1e	.
.	.	.	4b\
.	.	.	4a/
=85	=85	=85	=85
1BB	1d	2r	1g
.	.	2d\	.
0AA	0e	2c\	0a
.	.	1c	.
.	.	4B\	.
.	.	4c\	.
=86	=86	=86	=86
0.GG	1r	1d	1.b
.	[0d	1G	.
.	.	.	2g/
.	.	[1B	2.g/
.	.	.	4f/
=87	=87	=87	=87
1.BB	1d]	1B]	1d
.	2B\	2d\	1r
2AA/	2c\	2e\	.
1BB	[1d	2d\	1f#
.	.	[2B\	.
=88	=88	=88	=88
1GG	1d]	1B]	1g
0AA	1.c	2A/	2e/
.	.	2.F#/	1a
.	.	4E/	.
.	2A/	2F#i/	2f#i/
=89	=89	=89	=89
[0.GG	1B	0G	1e
.	2G/	.	0d
.	2.B\	.	.
.	.	2.B\	.
.	4c\	.	.
.	[2d\	.	.
.	.	4G/	.
=90	=90	=90	=90
!!linebreak:original
0.GG]	2d\]	2B\	1g
.	1G	1d	.
.	.	.	2r
.	2E/	2.G/	2.g/
.	2D/	.	.
.	.	4A/	4f/
.	[2G/	[2B\	[2d/
=91	=91	=91	=91
0.r	4G/]	4B\]	2d/]
.	4F/	4A/	.
.	2G/	2B\	1e
.	2A/	2c\	.
.	2D/	1A	1d
.	1E	.	.
.	.	2G/	2c#i/
=92	=92	=92	=92
1r	[0.Dl	[0.Al	[0.dl
1r	.	.	.
1D	.	.	.
=93	=93	=93	=93
0.Dl	0.D]	0.A]	0.d]
!!LO:LB:i:g=z
=94||	=94||	=94||	=94||
*>B	*>B	*>B	*>B
!!section: Qui tollis
!!!OMD: Qui tollis
*M2/1	*M2/1	*M2/1	*M2/1
*met(C|)	*met(C|)	*met(C|)	*met(C|)
0r	0r	0d	[0d
=95	=95	=95	=95
0r	0r	0B	0d]
=96	=96	=96	=96
0r	0r	0c	0e
=97	=97	=97	=97
!!linebreak:original
0r	0r	1r	0d
.	.	1d	.
=98	=98	=98	=98
0r	0r	0d	1a
.	.	.	[1a
=99	=99	=99	=99
0r	0r	0f	2a/]
.	.	.	2b\
.	.	.	1dd
=100	=100	=100	=100
0r	0r	1e	1cc
.	.	1d	[1b
=101	=101	=101	=101
0r	0r	0c	2b\]
.	.	.	2a/
.	.	.	[1a
=102	=102	=102	=102
0r	0r	1d	1a]
.	.	1e	1g
=103	=103	=103	=103
0r	0r	1.f	1.a
.	.	4e\	4g/
.	.	4d\	4f/
=104	=104	=104	=104
!!pagebreak:original
0r	0r	1.c	1e
.	.	.	1e
.	.	2d\	.
=105	=105	=105	=105
0r	0r	1e	1e
.	.	1A	1e
=106	=106	=106	=106
0r	0r	0B	1g
.	.	.	1g
=107	=107	=107	=107
0r	0r	1r	0c#
.	.	1A	.
=108	=108	=108	=108
0r	0r	1d	1r
.	.	1d	[1f
=109	=109	=109	=109
0r	0r	1B	2f/]
.	.	.	2d/
.	.	1c	1e
=110	=110	=110	=110
0r	0r	1d	1d
.	.	1d	[1a
=111	=111	=111	=111
!!linebreak:original
0r	0r	1f	1a]
.	.	1e	1g
=112	=112	=112	=112
0r	0r	1d	1f
.	.	1r	[1e
=113	=113	=113	=113
0r	0r	1g	1e]
.	.	2.f\	[1d
.	.	4g\	.
=114	=114	=114	=114
0r	0r	2b-i\	1d]
.	.	1a	.
.	.	.	2a/
.	.	2g\	2b\
=115	=115	=115	=115
0r	0r	2f\	2cc\
.	.	2d\	1dd
.	.	1e	.
.	.	.	2cc\
=116	=116	=116	=116
0r	0r	1.d	2dd\
.	.	.	1b
.	.	2c\	[2a/
=117	=117	=117	=117
0r	0r	1B	2a/]
.	.	.	2g/
.	.	2A/	1a
.	.	[2d\	.
=118	=118	=118	=118
!!linebreak:original
0r	0r	2d\]	2b\
.	.	2.c\	1cc
.	.	4d\	.
.	.	2f\	2a/
=119	=119	=119	=119
0r	0r	1.e	1.g
.	.	4d\	4f/
.	.	4c\	4e/
=120	=120	=120	=120
[0BB	0r	1.B	0d
.	.	2c\	.
=121	=121	=121	=121
0BB]	0r	0d	1r
.	.	.	1g
=122	=122	=122	=122
[0D	0A	1r	1f
.	.	[1A	[1a
=123	=123	=123	=123
0D]	1D	1A]	1a]
.	1F	1B	1d
=124	=124	=124	=124
0C	0E	0c	1e
.	.	.	1g
=125	=125	=125	=125
!!linebreak:original
0D	1r	1r	0f
.	[1D	1A	.
=126	=126	=126	=126
0BB	1D]	0B	0d
.	1G	.	.
=127	=127	=127	=127
1r	1A	1A	1f
1E	1c	1G	1e
=128	=128	=128	=128
0G	1B	1r	1d
.	1G	[1d	[1g
=129	=129	=129	=129
0D	0A	1d]	2g/]
.	.	.	2e/
.	.	1f	1f
=130	=130	=130	=130
1E	0G	1e	1.g
1BB	.	1d	.
.	.	.	2a/
=131	=131	=131	=131
[0D	0r	1d	1b
.	.	1d	[1a
=132	=132	=132	=132
!!pagebreak:original
0D]	0B	1d	2a/]
.	.	.	1f
.	.	1f	.
.	.	.	2d/
=133	=133	=133	=133
1C	0c	1e	0e
1AA	.	1c	.
=134	=134	=134	=134
1BB	0d	1r	0d
[1D	.	1d	.
=135	=135	=135	=135
1D]	0e	0A	0r
1C#i	.	.	.
=136	=136	=136	=136
[0D	[0d	1r	0a
.	.	[1A	.
=137	=137	=137	=137
1D]	0d]	1A]	1f
1BB	.	1B	[1g
=138	=138	=138	=138
1r	0B	0G	1g]
1E	.	.	1e
=139	=139	=139	=139
!!linebreak:original
0G	1r	1B	0d
.	1B	[1d	.
=140	=140	=140	=140
1G	1.d	2d\]	1r
.	.	2c\	.
[1D	.	1A	[1f
.	2c\	.	.
=141	=141	=141	=141
1D]	1A	1F	1f]
1E	1G	[1G	1e
=142	=142	=142	=142
1BB	0B	1G]	0d
[1D	.	1F	.
=143	=143	=143	=143
0D]	1A	1A	0f
.	1F	1B	.
=144	=144	=144	=144
1C	1G	0c	0e
1AA	1A	.	.
=145	=145	=145	=145
1BB	1D	0d	0r
[1D	1F	.	.
=146	=146	=146	=146
!!linebreak:original
1D]	0E	1r	[0a
1C#i	.	1e	.
=147	=147	=147	=147
[0D	1r	0f	0a]
.	[1A	.	.
=148	=148	=148	=148
0D]	1A]	1d	0f
.	1F	1A	.
=149	=149	=149	=149
0BB	0D	1d	0g
.	.	[1d	.
=150	=150	=150	=150
0AA	0E	2d\]	0a
.	.	2B\	.
.	.	1c#i	.
=151	=151	=151	=151
0D	1r	1.d	1a
.	1D	.	[1f
.	.	4c\	.
.	.	4B\	.
=152	=152	=152	=152
1r	0D	[0A	1f]
1D	.	.	1d
=153	=153	=153	=153
!!linebreak:original
0D	0d	0A]	0f
=154	=154	=154	=154
1E	1.c	0r	1g
1F	.	.	1f
.	2d\	.	.
=155	=155	=155	=155
[0G	1e	[0B	1e
.	[1d	.	[1g
=156	=156	=156	=156
1G]	0d]	1B]	1g]
1D	.	1A	1f
=157	=157	=157	=157
1E	1G	0c	1g
1F	1A	.	1e
=158	=158	=158	=158
0G	1.B	1r	0d
.	.	1B	.
.	2c\	.	.
=159	=159	=159	=159
1D	[0d	1A	0r
[1G	.	[1B	.
=160	=160	=160	=160
!!pagebreak:original
1G]	0d]	2B\]	1g
.	.	2A/	.
1D	.	1A	1a
=161	=161	=161	=161
1E	1B	0r	1g
1C	1c	.	1e
=162	=162	=162	=162
0D	0A	0d	0f
=163	=163	=163	=163
1E	0G	1B	1g
1C	.	1c	1e
=164	=164	=164	=164
0BB	1r	0d	0d
.	[1d	.	.
=165	=165	=165	=165
0AA	1d]	0e	1a
.	1c	.	1cc
=166	=166	=166	=166
1r	0d	[0f	1b
1D	.	.	1a
=167	=167	=167	=167
!!linebreak:original
[0D	1r	1f]	2b\
.	.	.	1dd
.	[1d	1d	.
.	.	.	2cc\
=168	=168	=168	=168
0D]	1d]	0f	2b\
.	.	.	2a/
.	1c	.	[1a
=169	=169	=169	=169
0E	0B	0e	2a/]
.	.	.	2f/
.	.	.	1g
=170	=170	=170	=170
0F	0A	0c	1a
.	.	.	1cc
=171	=171	=171	=171
[0G	0r	1e	0b
.	.	2d\	.
.	.	[2B\	.
=172	=172	=172	=172
1G]	0d	2B\]	1r
.	.	2G/	.
1D	.	1A	1a
=173	=173	=173	=173
1E	1G	1.c	2g/
.	.	.	1g
1F	1A	.	.
.	.	4B\	2f/
.	.	4A/	.
=174	=174	=174	=174
!!linebreak:original
1G	[0B	1G	1e
1D	.	1r	[1d
=175	=175	=175	=175
0G	0B]	1d	1d]
.	.	[1d	1d
=176	=176	=176	=176
1D	1A	1d]	1f
1E	[1G	1B	1e
=177	=177	=177	=177
0C	1G]	1c	1.g
.	1c	1G	.
.	.	.	2f/
=178	=178	=178	=178
0D	1B	1r	1d
.	[1A	1d	1f
=179	=179	=179	=179
0E	1A]	1c	0e
.	1G	1B	.
=180	=180	=180	=180
1BB	0B	1d	1d
1GG	.	[1d	[1g
=181	=181	=181	=181
!!linebreak:original
0AA	0A	2d\]	2g/]
.	.	2B\	2e/
.	.	1c	1f#i
=182	=182	=182	=182
1r	[0G	1d	0g
1C	.	1e	.
=183	=183	=183	=183
0C	0G]	1c	1r
.	.	[1c	1g
=184	=184	=184	=184
0D	1r	1c]	1f
.	1F	2A/	[1a
.	.	2B\	.
=185	=185	=185	=185
0C	1E	0c	2a/]
.	.	.	2g/
.	[1A	.	1e
=186	=186	=186	=186
0D	1A]	1A	0f
.	1F	1d	.
=187	=187	=187	=187
0C	0E	1e	1r
.	.	1c	1g
=188	=188	=188	=188
!!pagebreak:original
0D	0D	1r	1f
.	.	1f	[1d
=189	=189	=189	=189
0E	0r	0e	2d/]
.	.	.	2B/
.	.	.	1c
=190	=190	=190	=190
1BB	0D	1d	0d
1GG	.	1B	.
=191	=191	=191	=191
0AA	0C	[0c	1r
.	.	.	[1e
=192	=192	=192	=192
1r	0G	0c]	1e]
1C	.	.	1c
=193	=193	=193	=193
0C	1r	0G	1.e
.	[1c	.	.
.	.	.	2g/
=194	=194	=194	=194
0D	1c]	1r	1f
.	1B	1F	1d
=195	=195	=195	=195
!!linebreak:original
0C	0c	0G	0e
=196	=196	=196	=196
0D	1A	0F	0f
.	[1A	.	.
=197	=197	=197	=197
0C	1A]	0c	0e
.	1G	.	.
=198	=198	=198	=198
0D	0F	1A	1r
.	.	[1d	[1a
=199	=199	=199	=199
0E	0E	1d]	1a]
.	.	1c	1g
=200	=200	=200	=200
1BB	0D	1d	1.g
1GG	.	1B	.
.	.	.	2f/
=201	=201	=201	=201
0AA	1r	1c	0e
.	1C	[1A	.
=202	=202	=202	=202
!!linebreak:original
0BB	0D	1A]	1r
.	.	1G	[1d
=203	=203	=203	=203
0AA	0E	0A	1d]
.	.	.	1c
=204	=204	=204	=204
0GG	1r	0B	1d
.	[1D	.	[1g
=205	=205	=205	=205
1BB	1D]	1d	2g/]
.	.	.	4f/
.	.	.	4g/
1AA	1E	1c	1a
=206	=206	=206	=206
1BB	1D	0d	1g
1GG	[1G	.	1b
=207	=207	=207	=207
0AA	1G]	0c	0a
.	1F#i	.	.
=208	=208	=208	=208
[0GG	1.G	1.B	1r
.	.	.	[1g
.	2A/	2c\	.
=209	=209	=209	=209
!!linebreak:original
0GG]	0B-	1d	2g/]
.	.	.	2f/
.	.	1G	1d
=210	=210	=210	=210
0r	1A	0c	2f/
.	.	.	1a
.	[1A	.	.
.	.	.	2g/
=211	=211	=211	=211
0r	1A]	1c	2f/
.	.	.	2d/
.	1G	1B	1e
=212	=212	=212	=212
0r	1F	2c\	1A
.	.	1d	.
.	1D	.	2B/
.	.	[2A/	[2d/
=213	=213	=213	=213
0r	0E	2A/]	2d/]
.	.	2G/	2c#i/
.	.	2G/	2c#i/
.	.	2F/	2B/
=214	=214	=214	=214
0D	[0Dl	[0Al	[0dl
=215	=215	=215	=215
0Dl	0D]	0A]	0d]
==	==	==	==
*-	*-	*-	*-
!!!RDF**kern: l=long note in original notation
!!!RDF**kern: i=editorial accidental
!!!ENC:	Will Watson 24/2/2012
!!!END:	2012/02/24/
!!!EED:	Jesse Rodin
!!!EEV:	2012/03/17/
!!!ONB:	Translated from MusicXML and edited on 2012/03/17/ by Craig Sapp
!!muse2ps: T^@{OPR}^u^@{ONM}{. }@{OTL}^C^@{COM}^i2I100v85,90,85,150Q16
